app/dist/common/images/wave-cyber-environmental-material-h.svg

<svg height="18" viewBox="0 0 18 18" width="18" xmlns="http://www.w3.org/2000/svg"><path d="m0 0h18v18h-18z" fill="#f0f3fa"/><path d="m5.6 7.53-1.6-2.13v2.47l1.6 2.13 2.9-3.5v-2.47z" fill="#001774"/><path d="m11.1 7.5-1.6-2.12v2.47l1.6 2.12 2.9-3.5v-2.47z" fill="#009118"/><path d="m11.1 11.5-1.6-2.12v2.47l1.6 2.12 2.9-3.5v-2.47z" fill="#001774"/><path d="m5.6 11.53-1.6-2.13v2.47l1.6 2.13 2.9-3.5v-2.47z" fill="#009118"/></svg>

<!-- by TradingView --><svg width="18" height="18" viewBox="0 0 18 18" xmlns="http://www.w3.org/2000/svg"><path fill="#F0F3FA" d="M0 0h18v18H0z"/><path d="M5.6 7.53 4 5.4v2.47L5.6 10l2.9-3.5V4.03l-2.9 3.5Z" fill="#001774"/><path d="M11.1 7.5 9.5 5.38v2.47l1.6 2.12 2.9-3.5V4l-2.9 3.5Z" fill="#009118"/><path d="M11.1 11.5 9.5 9.38v2.47l1.6 2.12 2.9-3.5V8l-2.9 3.5Z" fill="#001774"/><path d="M5.6 11.53 4 9.4v2.47L5.6 14l2.9-3.5V8.03l-2.9 3.5Z" fill="#009118"/></svg>
